Newaita-dark/apps/48/google-chrome.svg

<svg height="48" viewBox="0 0 48 48" width="48" xmlns="http://www.w3.org/2000/svg" xmlns:xlink="http://www.w3.org/1999/xlink"><linearGradient id="a"><stop offset="0" stop-opacity=".313726"/><stop offset=".222222" stop-opacity=".27451"/><stop offset="1" stop-opacity="0"/></linearGradient><radialGradient id="b" cx="450.908936" cy="189.579361" gradientTransform="matrix(.00000026 -.117199 -.210958 -.00000015 66.784728 95.392994)" gradientUnits="userSpaceOnUse" r="21.166656" xlink:href="#a"/><radialGradient id="c" cx="450.908936" cy="189.579361" gradientTransform="matrix(-.00000026 .117199 .210958 .00000015 -19.155178 -11.291223)" gradientUnits="userSpaceOnUse" r="21.166656" xlink:href="#a"/><radialGradient id="d" cx="450.908936" cy="189.579361" gradientTransform="matrix(-.00000026 -.117199 .210958 -.00000015 -19.155178 95.392994)" gradientUnits="userSpaceOnUse" r="21.166656" xlink:href="#a"/><radialGradient id="e" cx="450.908936" cy="189.579361" gradientTransform="matrix(.00000026 .117199 -.210958 .00000015 66.784725 -11.291224)" gradientUnits="userSpaceOnUse" r="21.166656" xlink:href="#a"/><linearGradient id="f" gradientTransform="matrix(.0200401 0 0 .093759 18.698079 20.158175)" gradientUnits="userSpaceOnUse" x1="255.323059" x2="255.323044" y1="233.5" y2="254.666656"><stop offset="0" stop-opacity=".27451"/><stop offset="1" stop-opacity="0"/></linearGradient><linearGradient id="g" gradientUnits="userSpaceOnUse" x1="179.916672" x2="179.916672" y1="233.5" y2="-62.833328"><stop offset="0" stop-color="#4caf50"/><stop offset="1" stop-color="#66bb6a"/></linearGradient><linearGradient id="h" gradientUnits="userSpaceOnUse" x1="960" x2="960" y1="1215.118164" y2="175.118134"><stop offset="0" stop-color="#ef5350"/><stop offset="1" stop-color="#e57373"/></linearGradient><linearGradient id="i" gradientUnits="userSpaceOnUse" x1="1360" x2="1360" y1="1695.118164" y2="655.118103"><stop offset="0" stop-color="#ffa726"/><stop offset="1" stop-color="#ffb74d"/></linearGradient><linearGradient id="j" gradientUnits="userSpaceOnUse" x1="23.814786" x2="23.814786" y1="30.1435085" y2="16.25154987499"><stop offset="0" stop-color="#e0e0e0"/><stop offset="1" stop-color="#eee"/></linearGradient><linearGradient id="k" gradientUnits="userSpaceOnUse" x1="23.814786" x2="23.814786" y1="28.15894325002" y2="18.2361155"><stop offset="0" stop-color="#2196f3"/><stop offset="1" stop-color="#64b5f6"/></linearGradient><path d="m27.289062 42.050781h3.96875v-1.984375h-3.96875zm0 0" fill="url(#b)"/><path d="m20.339844 42.050781h-3.96875v1.984375h3.96875zm0 0" fill="url(#c)"/><path d="m20.339844 42.050781h-3.96875v-1.984375h3.96875zm0 0" fill="url(#d)"/><path d="m27.289062 42.050781h3.96875v1.984375h-3.96875zm0 0" fill="url(#e)"/><path d="m20.339844 41.554688h6.949218v2.480468h-6.949218zm0 0" fill="url(#f)"/><g stroke="#212121" stroke-linecap="round"><path d="m254.017409-168.671091c111.031064 0 201.064133 90.033069 201.064133 201.105795 0 111.031064-90.033069 201.064133-201.064133 201.064133-111.072726 0-201.105795-90.033069-201.105795-201.064133 0-111.072726 90.033069-201.105795 201.105795-201.105795zm0 0" fill="url(#g)" stroke-width="3" transform="matrix(.093759 0 0 .093759 0 20.158175)"/><path d="m960.065849 175.101398c-290.680918 0-542.15298 161.559384-670.172257 399.961827l430.037696 480.111657 240.134561 119.988548v39.996182l279.973279-279.973278 439.958009 239.977096v4.723958c25.981772-76.685594 39.996183-159.039939 39.996183-244.701054 0-421.062175-339.022761-760.084936-759.927471-760.084936zm0 0" fill="url(#h)" stroke-width="11.338583" transform="scale(.0248071)"/><path d="m960.065849 655.05559 279.973279 280.130744-279.973279 759.92747h1.259722c420.274849 0 758.667749-339.02276 758.667749-759.92747 0-95.581429-17.321182-186.753829-49.286635-270.840292-2.361979-2.991841-4.251563-6.141146-5.511285-9.290452zm0 0" fill="url(#i)" stroke-width="11.338583" transform="scale(.0248071)"/></g><path d="m23.816406 42.050781c-10.445312 0-18.855468-8.410156-18.855468-18.851562 0-.0625 0-.125 0-.1875.101562 10.359375 8.472656 18.667969 18.855468 18.667969 10.382813 0 18.753906-8.308594 18.851563-18.667969v.1875c0 10.441406-8.410157 18.851562-18.851563 18.851562zm0 0" fill-opacity=".196078"/><path d="m23.816406 4.34375c-10.445312 0-18.855468 8.410156-18.855468 18.855469v.183593c.101562-10.359374 8.472656-18.667968 18.855468-18.667968 10.382813 0 18.753906 8.308594 18.851563 18.667968 0-.0625 0-.125 0-.183593 0-10.445313-8.410157-18.855469-18.851563-18.855469zm0 0" fill="#fff" fill-opacity=".352941"/><path d="m23.816406 16.25c3.835938 0 6.945313 3.113281 6.945313 6.949219 0 3.835937-3.109375 6.945312-6.945313 6.945312-3.835937 0-6.949218-3.109375-6.949218-6.945312 0-3.835938 3.113281-6.949219 6.949218-6.949219zm0 0" fill="url(#j)"/><path d="m23.816406 18.234375c2.738282 0 4.960938 2.222656 4.960938 4.964844 0 2.738281-2.222656 4.960937-4.960938 4.960937-2.742187 0-4.964844-2.222656-4.964844-4.960937 0-2.742188 2.222657-4.964844 4.964844-4.964844zm0 0" fill="url(#k)"/><path d="m23.816406 4.203125c-10.523437 0-18.996094 8.472656-18.996094 18.996094 0 10.519531 8.472657 18.992187 18.996094 18.992187 10.519532 0 18.992188-8.472656 18.992188-18.992187 0-10.523438-8.472656-18.996094-18.992188-18.996094zm0 .28125c10.367188 0 18.710938 8.34375 18.710938 18.714844 0 10.367187-8.34375 18.710937-18.710938 18.710937-10.371094 0-18.714844-8.34375-18.714844-18.710937 0-10.371094 8.34375-18.714844 18.714844-18.714844zm0 0" fill="#212121"/><path d="m23.816406 18.234375c-2.75 0-4.964844 2.214844-4.964844 4.964844 0 .125.007813.246093.015626.371093.1875-2.574218 2.324218-4.589843 4.949218-4.589843 2.621094 0 4.757813 2.015625 4.945313 4.589843.007812-.125.015625-.246093.015625-.371093 0-2.75-2.214844-4.964844-4.960938-4.964844zm0 0" fill="#fff" fill-opacity=".392157"/><path d="m23.816406 28.902344c-2.75 0-4.964844-2.210938-4.964844-4.960938 0-.125.007813-.25.015626-.371094.1875 2.574219 2.324218 4.589844 4.949218 4.589844 2.621094 0 4.757813-2.015625 4.945313-4.589844.007812.121094.015625.246094.015625.371094 0 2.75-2.214844 4.960938-4.960938 4.960938zm0 0" fill-opacity=".235294"/><path d="m254.017409-20.518572c29.205545 0 52.911614 23.706069 52.911614 52.953276 0 29.205545-23.706069 52.911614-52.911614 52.911614-29.247207 0-52.953276-23.706069-52.953276-52.911614 0-29.247207 23.706069-52.953276 52.953276-52.953276zm0 0" fill="none" stroke="#212121" stroke-linecap="round" stroke-width="3" transform="matrix(.093759 0 0 .093759 0 20.158175)"/><path d="m23.816406 16.25c-3.851562 0-6.949218 3.097656-6.949218 6.949219 0 .125.003906.246093.011718.371093.191406-3.675781 3.210938-6.574218 6.9375-6.574218 3.722656 0 6.742188 2.898437 6.933594 6.574218.007812-.125.011719-.246093.011719-.371093 0-3.851563-3.097657-6.949219-6.945313-6.949219zm0 0" fill="#fff"/><path d="m23.816406 30.886719c-3.851562 0-6.949218-3.097657-6.949218-6.945313 0-.125.003906-.25.011718-.371094.191406 3.671876 3.210938 6.574219 6.9375 6.574219 3.722656 0 6.742188-2.902343 6.933594-6.574219.007812.121094.011719.246094.011719.371094 0 3.847656-3.097657 6.945313-6.945313 6.945313zm0 0" fill-opacity=".235294"/><path d="m254.017409-41.683218c40.91276 0 74.07626 33.205163 74.07626 74.117922 0 40.91276-33.1635 74.07626-74.07626 74.07626-40.912759 0-74.117922-33.1635-74.117922-74.07626 0-40.912759 33.205163-74.117922 74.117922-74.117922zm0 0" fill="none" stroke="#212121" stroke-linecap="round" stroke-width="3" transform="matrix(.093759 0 0 .093759 0 20.158175)"/></svg>

<?xml version="1.0" encoding="UTF-8"?>
<svg xmlns="http://www.w3.org/2000/svg" xmlns:xlink="http://www.w3.org/1999/xlink" width="48px" height="48px" viewBox="0 0 48 48" version="1.1">
<defs>
<radialGradient id="radial0" gradientUnits="userSpaceOnUse" cx="450.908936" cy="189.579361" fx="450.908936" fy="189.579361" r="21.166656" gradientTransform="matrix(0.000000261256,-0.117199,-0.210958,-0.000000152308,66.784728,95.392994)">
<stop offset="0" style="stop-color:rgb(0%,0%,0%);stop-opacity:0.313726;"/>
<stop offset="0.222222" style="stop-color:rgb(0%,0%,0%);stop-opacity:0.27451;"/>
<stop offset="1" style="stop-color:rgb(0%,0%,0%);stop-opacity:0;"/>
</radialGradient>
<radialGradient id="radial1" gradientUnits="userSpaceOnUse" cx="450.908936" cy="189.579361" fx="450.908936" fy="189.579361" r="21.166656" gradientTransform="matrix(-0.000000261256,0.117199,0.210958,0.000000152308,-19.155178,-11.291223)">
<stop offset="0" style="stop-color:rgb(0%,0%,0%);stop-opacity:0.313726;"/>
<stop offset="0.222222" style="stop-color:rgb(0%,0%,0%);stop-opacity:0.27451;"/>
<stop offset="1" style="stop-color:rgb(0%,0%,0%);stop-opacity:0;"/>
</radialGradient>
<radialGradient id="radial2" gradientUnits="userSpaceOnUse" cx="450.908936" cy="189.579361" fx="450.908936" fy="189.579361" r="21.166656" gradientTransform="matrix(-0.000000261256,-0.117199,0.210958,-0.000000152308,-19.155178,95.392994)">
<stop offset="0" style="stop-color:rgb(0%,0%,0%);stop-opacity:0.313726;"/>
<stop offset="0.222222" style="stop-color:rgb(0%,0%,0%);stop-opacity:0.27451;"/>
<stop offset="1" style="stop-color:rgb(0%,0%,0%);stop-opacity:0;"/>
</radialGradient>
<radialGradient id="radial3" gradientUnits="userSpaceOnUse" cx="450.908936" cy="189.579361" fx="450.908936" fy="189.579361" r="21.166656" gradientTransform="matrix(0.000000261256,0.117199,-0.210958,0.000000152308,66.784725,-11.291224)">
<stop offset="0" style="stop-color:rgb(0%,0%,0%);stop-opacity:0.313726;"/>
<stop offset="0.222222" style="stop-color:rgb(0%,0%,0%);stop-opacity:0.27451;"/>
<stop offset="1" style="stop-color:rgb(0%,0%,0%);stop-opacity:0;"/>
</radialGradient>
<linearGradient id="linear0" gradientUnits="userSpaceOnUse" x1="255.323059" y1="233.5" x2="255.323044" y2="254.666656" gradientTransform="matrix(0.0200401,0,0,0.093759,18.698079,20.158175)">
<stop offset="0" style="stop-color:rgb(0%,0%,0%);stop-opacity:0.27451;"/>
<stop offset="1" style="stop-color:rgb(0%,0%,0%);stop-opacity:0;"/>
</linearGradient>
<linearGradient id="linear1" gradientUnits="userSpaceOnUse" x1="179.916672" y1="233.5" x2="179.916672" y2="-62.833328" gradientTransform="matrix(1,0,0,1,0,0)">
<stop offset="0" style="stop-color:rgb(29.803923%,68.627453%,31.37255%);stop-opacity:1;"/>
<stop offset="1" style="stop-color:rgb(40.000001%,73.333335%,41.568628%);stop-opacity:1;"/>
</linearGradient>
<linearGradient id="linear2" gradientUnits="userSpaceOnUse" x1="960" y1="1215.118164" x2="960" y2="175.118134" gradientTransform="matrix(1,0,0,1,0,-0)">
<stop offset="0" style="stop-color:rgb(93.725491%,32.549021%,31.37255%);stop-opacity:1;"/>
<stop offset="1" style="stop-color:rgb(89.803922%,45.09804%,45.09804%);stop-opacity:1;"/>
</linearGradient>
<linearGradient id="linear3" gradientUnits="userSpaceOnUse" x1="1360" y1="1695.118164" x2="1360" y2="655.118103" gradientTransform="matrix(1,0,0,1,0,-0)">
<stop offset="0" style="stop-color:rgb(100%,65.490198%,14.901961%);stop-opacity:1;"/>
<stop offset="1" style="stop-color:rgb(100%,71.764708%,30.19608%);stop-opacity:1;"/>
</linearGradient>
<linearGradient id="linear4" gradientUnits="userSpaceOnUse" x1="254" y1="106.5" x2="254" y2="-41.666668" gradientTransform="matrix(0.093759,0,0,0.093759,0,20.158175)">
<stop offset="0" style="stop-color:rgb(87.843138%,87.843138%,87.843138%);stop-opacity:1;"/>
<stop offset="1" style="stop-color:rgb(93.333334%,93.333334%,93.333334%);stop-opacity:1;"/>
</linearGradient>
<linearGradient id="linear5" gradientUnits="userSpaceOnUse" x1="254" y1="85.333336" x2="254" y2="-20.5" gradientTransform="matrix(0.093759,0,0,0.093759,0,20.158175)">
<stop offset="0" style="stop-color:rgb(12.941177%,58.823532%,95.294118%);stop-opacity:1;"/>
<stop offset="1" style="stop-color:rgb(39.215687%,70.980394%,96.470588%);stop-opacity:1;"/>
</linearGradient>
</defs>
<g id="surface1">
<path style=" stroke:none;fill-rule:nonzero;fill:url(#radial0);" d="M 27.289062 42.050781 L 31.257812 42.050781 L 31.257812 40.066406 L 27.289062 40.066406 Z M 27.289062 42.050781 "/>
<path style=" stroke:none;fill-rule:nonzero;fill:url(#radial1);" d="M 20.339844 42.050781 L 16.371094 42.050781 L 16.371094 44.035156 L 20.339844 44.035156 Z M 20.339844 42.050781 "/>
<path style=" stroke:none;fill-rule:nonzero;fill:url(#radial2);" d="M 20.339844 42.050781 L 16.371094 42.050781 L 16.371094 40.066406 L 20.339844 40.066406 Z M 20.339844 42.050781 "/>
<path style=" stroke:none;fill-rule:nonzero;fill:url(#radial3);" d="M 27.289062 42.050781 L 31.257812 42.050781 L 31.257812 44.035156 L 27.289062 44.035156 Z M 27.289062 42.050781 "/>
<path style=" stroke:none;fill-rule:nonzero;fill:url(#linear0);" d="M 20.339844 41.554688 L 27.289062 41.554688 L 27.289062 44.035156 L 20.339844 44.035156 Z M 20.339844 41.554688 "/>
<path style="fill-rule:nonzero;fill:url(#linear1);stroke-width:3;stroke-linecap:round;stroke-linejoin:miter;stroke:rgb(12.941177%,12.941177%,12.941177%);stroke-opacity:1;stroke-miterlimit:4;" d="M 254.017409 -168.671091 C 365.048473 -168.671091 455.081542 -78.638022 455.081542 32.434704 C 455.081542 143.465768 365.048473 233.498837 254.017409 233.498837 C 142.944683 233.498837 52.911614 143.465768 52.911614 32.434704 C 52.911614 -78.638022 142.944683 -168.671091 254.017409 -168.671091 Z M 254.017409 -168.671091 " transform="matrix(0.093759,0,0,0.093759,0,20.158175)"/>
<path style="fill-rule:nonzero;fill:url(#linear2);stroke-width:11.338583;stroke-linecap:round;stroke-linejoin:miter;stroke:rgb(12.941177%,12.941177%,12.941177%);stroke-opacity:1;stroke-miterlimit:4;" d="M 960.065849 175.101398 C 669.384931 175.101398 417.912869 336.660782 289.893592 575.063225 L 719.931288 1055.174882 L 960.065849 1175.16343 L 960.065849 1215.159612 L 1240.039128 935.186334 L 1679.997137 1175.16343 L 1679.997137 1179.887388 C 1705.978909 1103.201794 1719.99332 1020.847449 1719.99332 935.186334 C 1719.99332 514.124159 1380.970559 175.101398 960.065849 175.101398 Z M 960.065849 175.101398 " transform="matrix(0.0248071,0,0,0.0248071,0,0)"/>
<path style="fill-rule:nonzero;fill:url(#linear3);stroke-width:11.338583;stroke-linecap:round;stroke-linejoin:miter;stroke:rgb(12.941177%,12.941177%,12.941177%);stroke-opacity:1;stroke-miterlimit:4;" d="M 960.065849 655.05559 L 1240.039128 935.186334 L 960.065849 1695.113804 L 961.325571 1695.113804 C 1381.60042 1695.113804 1719.99332 1356.091044 1719.99332 935.186334 C 1719.99332 839.604905 1702.672138 748.432505 1670.706685 664.346042 C 1668.344706 661.354201 1666.455122 658.204896 1665.1954 655.05559 Z M 960.065849 655.05559 " transform="matrix(0.0248071,0,0,0.0248071,0,0)"/>
<path style=" stroke:none;fill-rule:nonzero;fill:rgb(0%,0%,0%);fill-opacity:0.196078;" d="M 23.816406 42.050781 C 13.371094 42.050781 4.960938 33.640625 4.960938 23.199219 C 4.960938 23.136719 4.960938 23.074219 4.960938 23.011719 C 5.0625 33.371094 13.433594 41.679688 23.816406 41.679688 C 34.199219 41.679688 42.570312 33.371094 42.667969 23.011719 C 42.667969 23.074219 42.667969 23.136719 42.667969 23.199219 C 42.667969 33.640625 34.257812 42.050781 23.816406 42.050781 Z M 23.816406 42.050781 "/>
<path style=" stroke:none;fill-rule:nonzero;fill:rgb(100%,100%,100%);fill-opacity:0.352941;" d="M 23.816406 4.34375 C 13.371094 4.34375 4.960938 12.753906 4.960938 23.199219 C 4.960938 23.257812 4.960938 23.320312 4.960938 23.382812 C 5.0625 13.023438 13.433594 4.714844 23.816406 4.714844 C 34.199219 4.714844 42.570312 13.023438 42.667969 23.382812 C 42.667969 23.320312 42.667969 23.257812 42.667969 23.199219 C 42.667969 12.753906 34.257812 4.34375 23.816406 4.34375 Z M 23.816406 4.34375 "/>
<path style=" stroke:none;fill-rule:nonzero;fill:url(#linear4);" d="M 23.816406 16.25 C 27.652344 16.25 30.761719 19.363281 30.761719 23.199219 C 30.761719 27.035156 27.652344 30.144531 23.816406 30.144531 C 19.980469 30.144531 16.867188 27.035156 16.867188 23.199219 C 16.867188 19.363281 19.980469 16.25 23.816406 16.25 Z M 23.816406 16.25 "/>
<path style=" stroke:none;fill-rule:nonzero;fill:url(#linear5);" d="M 23.816406 18.234375 C 26.554688 18.234375 28.777344 20.457031 28.777344 23.199219 C 28.777344 25.9375 26.554688 28.160156 23.816406 28.160156 C 21.074219 28.160156 18.851562 25.9375 18.851562 23.199219 C 18.851562 20.457031 21.074219 18.234375 23.816406 18.234375 Z M 23.816406 18.234375 "/>
<path style=" stroke:none;fill-rule:nonzero;fill:rgb(12.941177%,12.941177%,12.941177%);fill-opacity:1;" d="M 23.816406 4.203125 C 13.292969 4.203125 4.820312 12.675781 4.820312 23.199219 C 4.820312 33.71875 13.292969 42.191406 23.816406 42.191406 C 34.335938 42.191406 42.808594 33.71875 42.808594 23.199219 C 42.808594 12.675781 34.335938 4.203125 23.816406 4.203125 Z M 23.816406 4.484375 C 34.183594 4.484375 42.527344 12.828125 42.527344 23.199219 C 42.527344 33.566406 34.183594 41.910156 23.816406 41.910156 C 13.445312 41.910156 5.101562 33.566406 5.101562 23.199219 C 5.101562 12.828125 13.445312 4.484375 23.816406 4.484375 Z M 23.816406 4.484375 "/>
<path style=" stroke:none;fill-rule:nonzero;fill:rgb(100%,100%,100%);fill-opacity:0.392157;" d="M 23.816406 18.234375 C 21.066406 18.234375 18.851562 20.449219 18.851562 23.199219 C 18.851562 23.324219 18.859375 23.445312 18.867188 23.570312 C 19.054688 20.996094 21.191406 18.980469 23.816406 18.980469 C 26.4375 18.980469 28.574219 20.996094 28.761719 23.570312 C 28.769531 23.445312 28.777344 23.324219 28.777344 23.199219 C 28.777344 20.449219 26.5625 18.234375 23.816406 18.234375 Z M 23.816406 18.234375 "/>
<path style=" stroke:none;fill-rule:nonzero;fill:rgb(0%,0%,0%);fill-opacity:0.235294;" d="M 23.816406 28.902344 C 21.066406 28.902344 18.851562 26.691406 18.851562 23.941406 C 18.851562 23.816406 18.859375 23.691406 18.867188 23.570312 C 19.054688 26.144531 21.191406 28.160156 23.816406 28.160156 C 26.4375 28.160156 28.574219 26.144531 28.761719 23.570312 C 28.769531 23.691406 28.777344 23.816406 28.777344 23.941406 C 28.777344 26.691406 26.5625 28.902344 23.816406 28.902344 Z M 23.816406 28.902344 "/>
<path style="fill:none;stroke-width:3;stroke-linecap:round;stroke-linejoin:miter;stroke:rgb(12.941177%,12.941177%,12.941177%);stroke-opacity:1;stroke-miterlimit:4;" d="M 254.017409 -20.518572 C 283.222954 -20.518572 306.929023 3.187497 306.929023 32.434704 C 306.929023 61.640249 283.222954 85.346318 254.017409 85.346318 C 224.770202 85.346318 201.064133 61.640249 201.064133 32.434704 C 201.064133 3.187497 224.770202 -20.518572 254.017409 -20.518572 Z M 254.017409 -20.518572 " transform="matrix(0.093759,0,0,0.093759,0,20.158175)"/>
<path style=" stroke:none;fill-rule:nonzero;fill:rgb(100%,100%,100%);fill-opacity:1;" d="M 23.816406 16.25 C 19.964844 16.25 16.867188 19.347656 16.867188 23.199219 C 16.867188 23.324219 16.871094 23.445312 16.878906 23.570312 C 17.070312 19.894531 20.089844 16.996094 23.816406 16.996094 C 27.539062 16.996094 30.558594 19.894531 30.75 23.570312 C 30.757812 23.445312 30.761719 23.324219 30.761719 23.199219 C 30.761719 19.347656 27.664062 16.25 23.816406 16.25 Z M 23.816406 16.25 "/>
<path style=" stroke:none;fill-rule:nonzero;fill:rgb(0%,0%,0%);fill-opacity:0.235294;" d="M 23.816406 30.886719 C 19.964844 30.886719 16.867188 27.789062 16.867188 23.941406 C 16.867188 23.816406 16.871094 23.691406 16.878906 23.570312 C 17.070312 27.242188 20.089844 30.144531 23.816406 30.144531 C 27.539062 30.144531 30.558594 27.242188 30.75 23.570312 C 30.757812 23.691406 30.761719 23.816406 30.761719 23.941406 C 30.761719 27.789062 27.664062 30.886719 23.816406 30.886719 Z M 23.816406 30.886719 "/>
<path style="fill:none;stroke-width:3;stroke-linecap:round;stroke-linejoin:miter;stroke:rgb(12.941177%,12.941177%,12.941177%);stroke-opacity:1;stroke-miterlimit:4;" d="M 254.017409 -41.683218 C 294.930169 -41.683218 328.093669 -8.478055 328.093669 32.434704 C 328.093669 73.347464 294.930169 106.510964 254.017409 106.510964 C 213.10465 106.510964 179.899487 73.347464 179.899487 32.434704 C 179.899487 -8.478055 213.10465 -41.683218 254.017409 -41.683218 Z M 254.017409 -41.683218 " transform="matrix(0.093759,0,0,0.093759,0,20.158175)"/>
</g>
</svg>
